X: 41732
T: Valse Astrid
R: waltz
M: 3/4
K: Gmajor
G,A,B,G,B,D|C2A,4|A,G,A,B,CE|D6|
G,A,B,G,B,D|C2A,4|C3B,G,2|A,5A,|
G,A,B,G,B,D|C2A,4|A,G,A,B,CE|D6|
GFGABd|c2A2BA|G2A2FA|G6||
g3abg|c'bc'2e'2|d'2a2c'2|~b3ag2|
d'2a2c'2|~b3ag2|gef2ga|f2d2z2|
g3abg|c'bc'2e'2|d'2a2c'2|~b3bc'd'|
|:e'd'e'bc'g|a3abc'|d'c'd'abf|g3gab|
c'bc'gae|f3e(d2|d2)A2B2|1 G3bc'd':|2 G4z2||
|:G2d4|c3BAG|A2ABcd|B2G4|
G2d4|c3BAG|A4c2|d3cBA|
G2d4|c3BAG|A2ABcd|B2G4|
D3EFD|G2FGAc|B2A2GF|G6:|

